X:509
T:Cork Leg,The. RH.509
T:King and the Countryman,The. RH.509
R:air
S:Rev.R.Harrison’s MS,c1815,Cumbria
O:England
A:Temple Sowerby,Cumbria
Z:vmp.Simon Wilson. Review PJH, 2008.
M:6/8
L:1/8
Q:3/8=110
K:G
” Allegretto”D|G2G (GB).B|.d(dB)G2G|\
(A2G)(A2G)|(A2G)(A2G)|.B(BA) B2A|!
(B2A)(B2A)|(B2A)(B2A)|BcdG2=F|E2ed2B|G3G2|]

